icons/arrow-up-down-fill.svg

<svg xmlns="http://www.w3.org/2000/svg" viewBox="0 0 24 24">
    <g>
        <path fill="none" d="M0 0h24v24H0z"/>
        <path d="M12 8H8.001L8 20H6V8H2l5-5 5 5zm10 8l-5 5-5-5h4V4h2v12h4z"/>
    </g>
</svg>

<svg viewBox="0 0 24 24" xmlns="http://www.w3.org/2000/svg"><path d="M12 8H8.001L8 20H6V8H2L7 3L12 8ZM22 16L17 21L12 16H16V4H18V16H22Z"/></svg>
